svg/part/father_christmas_line.svg

<?xml version="1.0" encoding="UTF-8"?>
<svg width="24px" height="24px" viewBox="0 0 24 24" version="1.1" xmlns="http://www.w3.org/2000/svg" xmlns:xlink="http://www.w3.org/1999/xlink">
    <title>father_christmas_line</title>
    <g id="Icon" stroke="none" stroke-width="1" fill="none" fill-rule="evenodd">
        <g id="Part" transform="translate(-48.000000, -192.000000)" fill-rule="nonzero">
            <g id="father_christmas_line" transform="translate(48.000000, 192.000000)">
                <path d="M24,0 L24,24 L0,24 L0,0 L24,0 Z M12.5935,23.2578 L12.5819,23.2595 L12.5109,23.295 L12.4919,23.2987 L12.4767,23.295 L12.4057,23.2595 C12.3958,23.2564 12.387,23.259 12.3821,23.2649 L12.378,23.2758 L12.3609,23.7031 L12.3659,23.7235 L12.3769,23.7357 L12.4805,23.8097 L12.4953,23.8136 L12.5071,23.8097 L12.6107,23.7357 L12.6233,23.7197 L12.6267,23.7031 L12.6096,23.2758 C12.6076,23.2657 12.601,23.2593 12.5935,23.2578 Z M12.8584,23.1453 L12.8445,23.1473 L12.6598,23.2397 L12.6499,23.2499 L12.6472,23.2611 L12.6651,23.6906 L12.6699,23.7034 L12.6784,23.7105 L12.8793,23.8032 C12.8914,23.8069 12.9022,23.803 12.9078,23.7952 L12.9118,23.7812 L12.8777,23.1665 C12.8753,23.1546 12.8674,23.147 12.8584,23.1453 Z M12.143,23.1473 C12.1332,23.1424 12.1222,23.1453 12.1156,23.1526 L12.1099,23.1665 L12.0758,23.7812 C12.0751,23.7927 12.0828,23.8019 12.0926,23.8046 L12.1083,23.8032 L12.3092,23.7105 L12.3186,23.7024 L12.3225,23.6906 L12.3404,23.2611 L12.3372,23.2485 L12.3278,23.2397 L12.143,23.1473 Z" id="MingCute"></path>
                <path d="M17.9069,4.07097 C18.097,4.02471 18.2956,4.00019 18.5,4.00019 C19.8807,4.00019 21,5.11948 21,6.50019 C21,7.38003 20.5455,8.15371 19.8585,8.59926 L19.9529,9.19199 L19.9529,9.19199 L20.0491062,9.52670984 L20.0491062,9.52670984 L20.1302324,9.84774971 L20.1302324,9.84774971 L20.2217236,10.2578877 L20.2217236,10.2578877 L20.2838361,10.5748444 C20.2940695,10.6303239 20.3042047,10.6870805 20.314184,10.7450394 L20.3717227,11.1066252 C20.3808458,11.1690954 20.3896968,11.2326188 20.3982177,11.2971208 L20.4449188,11.6952795 C20.4518875,11.7633976 20.4584102,11.8323452 20.4644289,11.9020475 L20.4940283,12.328723 C20.5091102,12.6184163 20.5142714,12.9178 20.5058,13.2221 C20.4627,14.7704 20.0593,16.5871 18.6417,17.7685 C18.2453,18.0987667 17.9008111,18.4121444 17.5845593,18.7115074 L17.1284,19.1504 L17.1284,19.1504 C16.7046,19.5643 16.284,19.9828 15.8285,20.3623 C14.8851,21.1483 13.8481,21.7055 12.1698,21.986 C12.0595,22.005 11.9423,22.0051 11.8319,21.9861 C10.1527,21.7056 9.11553,21.1484 8.1722,20.3622 C7.944505,20.1725 7.7255325,19.973 7.5105175,19.7691875 L6.87258,19.1503 C6.4319,18.7213 5.95417,18.2639 5.35969,17.7685 C3.94202,16.5871 3.53862,14.7704 3.49552,13.2221 C3.460432,11.96178 3.657856,10.730196 3.87696576,9.82550096 L3.98735174,9.40177452 L3.98735174,9.40177452 L4.05121,9.18405 L4.12167886,8.97757148 L4.12167886,8.97757148 L4.28349915,8.53673773 L4.28349915,8.53673773 L4.42797054,8.17539116 C4.45444946,8.11161972 4.48212075,8.04626481 4.51097269,7.97961148 L4.69815842,7.56639074 C4.96637988,7.00073593 5.30866333,6.38846778 5.71901,5.87553 C6.41906,5.00048 7.81119,3.44798 9.90814,2.68547 C12.0428,1.90926 14.7392,2.01046 17.9069,4.07097 Z M6.6164,8.1951 C6.4367,8.55140556 6.28537346,8.90823272 6.16783875,9.21033628 L5.99394184,9.68308826 C5.97893506,9.72639765 5.96541,9.76619222 5.95341,9.80203 C5.72532,10.5675 5.45868,11.8707 5.49475,13.1664 C5.5318,14.4974 5.87839,15.5974 6.64004,16.232 C7.01462857,16.5441714 7.34570694,16.841551 7.64464397,17.1208548 L8.07036461,17.5258431 L8.07036461,17.5258431 L8.26781,17.7174 C8.65493,18.0947 9.03695,18.4795 9.45257,18.8258 C10.1048,19.3694 10.7856,19.76 12.0006,19.9851 C13.2149,19.76 13.8957,19.3694 14.5483,18.8257 C14.8253667,18.5949 15.0876778,18.3468556 15.346463,18.0953741 L15.9308983,17.5257487 L15.9308983,17.5257487 L16.3566854,17.1207942 C16.655651,16.8415184 16.9867286,16.5441714 17.3613,16.232 C18.123,15.5974 18.4695,14.4974 18.5066,13.1664 C18.5427,11.868 18.2749,10.5621 18.0465,9.79727 C18.0025,9.65864 17.973025,9.51498 17.949275,9.370125 L17.8847,8.9239 C17.4733,8.81977 17.1025,8.61363 16.8008,8.33397 C15.2299,8.69503 13.6163,9.00019 12,9.00019 C10.1865,9.00019 8.37204,8.62837 6.6164,8.1951 Z M16.7034,12.0198 C17.2386,12.1289 17.5927,12.6666 17.4832,13.2013 C17.2921,14.1261 16.8808,15.0331 16.2071,15.7068 C15.6839,16.2301 14.987,16.3358 14.5013,16.3302 C14.0071,16.3244 13.4952,16.2027 13.1325,16.009 L12.9775698,15.9197509 L12.9775698,15.9197509 L12.6588056,15.7238995 C12.4960479,15.6286659 12.3278192,15.5459466 12.1522853,15.5138854 L11.9999958,15.4997 C11.7420609,15.4997 11.5031088,15.6229812 11.2769636,15.761243 L11.0113416,15.9274164 C10.9679641,15.954 10.925,15.97945 10.8824,16.0029 C10.5108,16.2076 9.9914,16.3291 9.49621,16.3334 C9.00752,16.3376 8.31374,16.2276 7.79291,15.7068 C7.1183,15.0322 6.70713,14.1244 6.51975,13.1974 C6.41107,12.6559 6.76174,12.1279 7.30323,12.0193 C7.80577286,11.9183643 8.29589077,12.2133714 8.45066316,12.6891852 L8.48028,12.8021 C8.59999,13.3294 8.82025,13.9057 9.20712,14.2926 C9.44659556,14.4510889 9.80785284,14.3058543 10.056004,14.1693638 L10.4227384,13.955892 C10.7739088,13.759444 11.2143866,13.557508 11.7573087,13.5100935 L11.9963,13.4997 C12.64342,13.4997 13.16574,13.731508 13.5655128,13.9520776 L13.8424,14.1116 C14.0457778,14.2316 14.4338864,14.4134667 14.7031078,14.331318 L14.7979,14.2875 L14.9306309,14.1388369 C15.1911035,13.8154146 15.3631371,13.4021963 15.4736473,12.9996303 L15.5239,12.7997 C15.6344,12.2588 16.1624,11.9096 16.7034,12.0198 Z M10,10 C10.5523,10 11,10.4477 11,11 C11,11.5523 10.5523,12 10,12 C9.44772,12 9,11.5523 9,11 C9,10.4477 9.44772,10 10,10 Z M14,10 C14.5523,10 15,10.4477 15,11 C15,11.5523 14.5523,12 14,12 C13.4477,12 13,11.5523 13,11 C13,10.4477 13.4477,10 14,10 Z M10.5916,4.56506 C9.43369,4.98612 8.52708,5.74817 7.8769,6.43678 C9.22635,6.73745 10.6134,7.00019 12,7.00019 C13.2327,7.00019 14.7944,6.72799 16.0003,6.46391 C16.0057,6.08311 16.0962,5.72289 16.2538,5.40146 C13.8263,3.99613 11.9631,4.06635 10.5916,4.56506 Z M18.5,6 C18.2239,6 18,6.22386 18,6.5 C18,6.77614 18.2239,7 18.5,7 C18.7761,7 19,6.77614 19,6.5 C19,6.22386 18.7761,6 18.5,6 Z" id="形状" fill="#09244B"></path>
            </g>
        </g>
    </g>
</svg>

<svg xmlns="http://www.w3.org/2000/svg" width="24" height="24"><g fill="none" fill-rule="nonzero"><path d="M24 0v24H0V0h24ZM12.594 23.258l-.012.002-.071.035-.02.004-.014-.004-.071-.036c-.01-.003-.019 0-.024.006l-.004.01-.017.428.005.02.01.013.104.074.015.004.012-.004.104-.074.012-.016.004-.017-.017-.427c-.002-.01-.009-.017-.016-.018Zm.264-.113-.014.002-.184.093-.01.01-.003.011.018.43.005.012.008.008.201.092c.012.004.023 0 .029-.008l.004-.014-.034-.614c-.003-.012-.01-.02-.02-.022Zm-.715.002a.023.023 0 0 0-.027.006l-.006.014-.034.614c0 .012.007.02.017.024l.015-.002.201-.093.01-.008.003-.011.018-.43-.003-.012-.01-.01-.184-.092Z"/><path fill="#09244B" d="M17.907 4.071a2.5 2.5 0 0 1 1.952 4.528l.094.593.096.335.081.32.092.41.062.318.03.17.058.362.026.19.047.398.02.207.029.427c.015.29.02.589.012.893-.043 1.548-.447 3.365-1.864 4.547-.397.33-.741.643-1.057.943l-.457.438c-.423.414-.844.833-1.3 1.212-.943.786-1.98 1.344-3.658 1.624-.11.019-.228.02-.338 0-1.68-.28-2.716-.838-3.66-1.624-.227-.19-.446-.389-.661-.593l-.638-.619A25.51 25.51 0 0 0 5.36 17.77c-1.418-1.182-1.821-2.999-1.864-4.547-.036-1.26.162-2.492.381-3.396l.11-.424.064-.218.07-.206.162-.441.145-.362.083-.195.187-.414c.268-.565.61-1.178 1.021-1.69.7-.876 2.092-2.428 4.19-3.19 2.134-.777 4.83-.676 7.998 1.385ZM6.617 8.195c-.18.356-.332.713-.45 1.015l-.173.473c-.015.043-.029.083-.04.119-.229.766-.495 2.069-.46 3.364.038 1.331.384 2.431 1.146 3.066.375.312.706.61 1.005.889l.425.405.198.191c.387.378.769.763 1.185 1.109.652.543 1.333.934 2.548 1.16 1.214-.226 1.895-.617 2.547-1.16.277-.231.54-.48.798-.73l.585-.57.426-.405c.299-.28.63-.577 1.004-.889.762-.635 1.108-1.735 1.146-3.066.036-1.298-.232-2.604-.46-3.369a3.032 3.032 0 0 1-.098-.427l-.064-.446a2.495 2.495 0 0 1-1.084-.59C15.23 8.695 13.616 9 12 9c-1.813 0-3.628-.372-5.384-.805Zm10.086 3.825c.536.109.89.647.78 1.181-.19.925-.602 1.832-1.276 2.506-.523.523-1.22.629-1.706.623-.494-.006-1.006-.127-1.368-.321l-.155-.09-.32-.195a1.596 1.596 0 0 0-.506-.21L12 15.5c-.258 0-.497.123-.723.261l-.266.166a3.22 3.22 0 0 1-.129.076c-.371.205-.89.326-1.386.33-.488.005-1.182-.105-1.703-.626-.675-.675-1.086-1.583-1.273-2.51a1 1 0 0 1 1.93-.508l.03.113c.12.527.34 1.104.727 1.49.24.16.6.014.849-.123l.367-.213c.35-.197.791-.398 1.334-.446l.24-.01c.646 0 1.169.232 1.569.452l.276.16c.204.12.592.301.861.22l.095-.045.133-.148c.26-.324.432-.737.543-1.14l.05-.2a1 1 0 0 1 1.18-.78ZM10 10a1 1 0 1 1 0 2 1 1 0 0 1 0-2Zm4 0a1 1 0 1 1 0 2 1 1 0 0 1 0-2Zm-3.408-5.435c-1.158.421-2.065 1.183-2.715 1.872C9.227 6.737 10.613 7 12 7c1.233 0 2.794-.272 4-.536.006-.38.096-.741.254-1.063-2.428-1.405-4.29-1.335-5.662-.836ZM18.5 6a.5.5 0 1 0 0 1 .5.5 0 0 0 0-1Z"/></g></svg>
